icons/op-user-plus-24.svg

<svg width="24" height="24" viewBox="0 0 24 24" fill="none" xmlns="http://www.w3.org/2000/svg">
<path d="M14.8666 17.9843H12.8004V13.9843H14.8666V13.8898C14.1886 13.6063 13.9949 13.4803 13.9949 13.4803V12C13.9949 12 14.6083 11.5591 14.7698 10.1417C15.1572 10.2362 15.5446 9.6063 15.5769 9.25984C15.5769 8.91339 15.5123 8 15.0603 8.09449C15.1572 7.40157 15.2218 6.80315 15.1895 6.45669C15.0603 5.25984 13.8658 4 11.9932 4C10.1207 4 8.92612 5.25984 8.79698 6.45669C8.76469 6.80315 8.82926 7.40157 8.92612 8.09449C8.47412 8 8.40955 8.91339 8.40955 9.25984C8.44184 9.6063 8.82926 10.2362 9.21669 10.1417C9.37811 11.5591 9.99154 12 9.99154 12V13.4803C9.99154 13.4803 9.60411 13.7323 7.98984 14.3622C6.40786 15.0236 4.79359 15.4646 4.30931 16.189C3.8896 16.8504 4.01874 20 4.01874 20H14.8666V17.9843ZM17.9337 18.9921H15.8998V12.9764H17.9337V18.9921ZM13.8335 17.0079V14.9921H20V17.0079H13.8335Z" fill="black"/>
</svg>

<svg xmlns="http://www.w3.org/2000/svg" width="24" height="24" viewBox="0 0 24 24"><path d="M14.867 17.984H12.8v-4h2.067v-.094c-.678-.284-.872-.41-.872-.41V12s.613-.441.775-1.858c.387.094.775-.536.807-.882 0-.347-.065-1.26-.517-1.166.097-.692.162-1.291.13-1.637C15.06 5.26 13.866 4 11.993 4c-1.872 0-3.067 1.26-3.196 2.457-.032.346.032.945.129 1.637C8.474 8 8.41 8.913 8.41 9.26c.032.346.419.976.807.882.161 1.417.775 1.858.775 1.858v1.48s-.388.252-2.002.882c-1.582.662-3.196 1.103-3.681 1.827-.419.661-.29 3.811-.29 3.811h10.848v-2.016Zm3.067 1.008H15.9v-6.016h2.034v6.016Zm-4.1-1.984v-2.016H20v2.016h-6.166Z"/></svg>
